assets/linkedin-icon.svg

<svg fill="none" height="16" viewBox="0 0 16 16" width="16" xmlns="http://www.w3.org/2000/svg"><path d="m3.58143 14.9997h-3.317144v-9.34689h3.317144zm-1.66036-10.62189c-1.060713 0-1.92107-.76875-1.92107-1.69687.00000001-.44582.202398-.87337.562668-1.18861.360271-.31523.848902-.49233 1.358402-.49233s.99813.1771 1.35841.49233c.36027.31524.56266.74279.56266 1.18861 0 .92812-.86071 1.69687-1.92107 1.69687zm14.07533 10.62189h-3.31v-4.55c0-1.08439-.025-2.47501-1.7246-2.47501-1.72466 0-1.98894 1.17812-1.98894 2.39691v4.6281h-3.31357v-9.34689h3.18142v1.275h.04643c.44286-.73437 1.52466-1.50937 3.13856-1.50937 3.3572 0 3.9743 1.93437 3.9743 4.44687v5.13439z" fill="#fff" fill-opacity=".9"/></svg>

<svg width="16" height="16" viewBox="0 0 16 16" fill="none" xmlns="http://www.w3.org/2000/svg">
<path d="M3.58143 14.9997H0.264286V5.65281H3.58143V14.9997ZM1.92107 4.37781C0.860357 4.37781 0 3.60906 0 2.68094C7.5e-09 2.23512 0.202398 1.80757 0.562668 1.49233C0.922939 1.1771 1.41157 1 1.92107 1C2.43057 1 2.9192 1.1771 3.27948 1.49233C3.63975 1.80757 3.84214 2.23512 3.84214 2.68094C3.84214 3.60906 2.98143 4.37781 1.92107 4.37781ZM15.9964 14.9997H12.6864V10.4497C12.6864 9.36531 12.6614 7.97469 10.9618 7.97469C9.23714 7.97469 8.97286 9.15281 8.97286 10.3716V14.9997H5.65929V5.65281H8.84071V6.92781H8.88714C9.33 6.19344 10.4118 5.41844 12.0257 5.41844C15.3829 5.41844 16 7.35281 16 9.86531V14.9997H15.9964Z" fill="white" fill-opacity="0.9"/>
</svg>
